svgs/solid/display-arrow-down.svg

<svg xmlns="http://www.w3.org/2000/svg" viewBox="0 0 576 512"><!--! Font Awesome Pro 6.6.0 by @fontawesome - https://fontawesome.com License - https://fontawesome.com/license (Commercial License) Copyright 2024 Fonticons, Inc. --><path d="M64 0C28.7 0 0 28.7 0 64L0 352c0 35.3 28.7 64 64 64l176 0-10.7 32L160 448c-17.7 0-32 14.3-32 32s14.3 32 32 32l256 0c17.7 0 32-14.3 32-32s-14.3-32-32-32l-69.3 0L336 416l176 0c35.3 0 64-28.7 64-64l0-288c0-35.3-28.7-64-64-64L352 0l0 64 160 0 0 288L64 352 64 64l160 0 0-64L64 0zM312 24c0-13.3-10.7-24-24-24s-24 10.7-24 24l0 182.1-39-39c-9.4-9.4-24.6-9.4-33.9 0s-9.4 24.6 0 33.9l80 80c9.4 9.4 24.6 9.4 33.9 0l80-80c9.4-9.4 9.4-24.6 0-33.9s-24.6-9.4-33.9 0l-39 39L312 24z"/></svg>

<svg xmlns="http://www.w3.org/2000/svg" viewBox="0 0 576 512"><!--! Font Awesome Pro 6.4.0 by @fontawesome - https://fontawesome.com License - https://fontawesome.com/license (Commercial License) Copyright 2023 Fonticons, Inc. --><path d="M64 0C28.7 0 0 28.7 0 64V352c0 35.3 28.7 64 64 64H240l-10.7 32H160c-17.7 0-32 14.3-32 32s14.3 32 32 32H416c17.7 0 32-14.3 32-32s-14.3-32-32-32H346.7L336 416H512c35.3 0 64-28.7 64-64V64c0-35.3-28.7-64-64-64H352V64H512V352H64V64H224V0H64zM312 24c0-13.3-10.7-24-24-24s-24 10.7-24 24V206.1l-39-39c-9.4-9.4-24.6-9.4-33.9 0s-9.4 24.6 0 33.9l80 80c9.4 9.4 24.6 9.4 33.9 0l80-80c9.4-9.4 9.4-24.6 0-33.9s-24.6-9.4-33.9 0l-39 39V24z"/></svg>
